X:1
T:Title
%%score { ( 1 3 ) | ( 2 4 ) }
L:1/8
Q:1/4=90
M:6/8
K:Bb
V:1 treble nm="Grand Piano"
V:3 treble 
V:2 bass 
V:4 bass 
V:1
 [DF][B,D][DF] GBG | [DF]3 [B,D]3 | [DF][B,D][DF] [=Ed][Ec][EG] | [Ec]6 | [DF][B,D][DF] GBG | %5
w: J.~Lincoln~Hall * * * * *|||||
 [DF]3 [B,D]3 | [=EG][EA][EB] [Ec][EG][Ed] | [Ec]6 | [DB][DB]>[DB] [DB][DF][DB] | A6 | ccc cdc | %11
w: ||||||
 B6 | [DF][B,D][DF] [DB]2 [DF]/[DF]/ |[M:7/8] GEG [=Ec]3 [EG] |[M:3/4] AG Fe dc | B6 |] %16
w: |||||
V:2
 [B,,B,][B,,F,][B,,B,] [E,B,E][E,G,E][E,B,E] | [B,,B,]3 [B,,F,]3 | %2
 [B,,B,][B,,F,][B,,B,] [C,B,][C,B,][C,B,] | [F,A,]6 | [B,,B,][B,,F,][B,,B,] [E,B,E][E,G,E][E,B,E] | %5
 [B,,B,]3 [B,,F,]3 | [C,B,][C,A,][C,G,] [C,G,][C,C][C,B,] | [F,A,]6 | %8
 [B,,B,][B,,B,]>[B,,B,] [B,,B,][B,,B,][B,,B,] | [F,CE]2 [F,C] [F,C]3 | %10
 [F,A,E][F,A,E][F,A,E] [F,A,E][F,B,F][F,A,E] | z2 G, F,2 [B,,B,]/[B,,B,]/ | %12
 [B,,B,][B,,F,][B,,B,] [B,,F,]2 [B,,B,]/[B,,B,]/ |[M:7/8] [E,B,E][E,G,][E,G,E] [C,G,]3 [C,C] | %14
[M:3/4] [F,CE][F,B,E] [F,A,E][F,A,G] [F,B,F][F,A,E] | z2 G, F,3 |] %16
V:3
 x6 | x6 | x6 | x6 | x6 | x6 | x6 | x6 | x6 | z2 E E3 | x6 | [B,D]2 E D2 [DF]/[DF]/ | x6 | %13
[M:7/8] x7 |[M:3/4] x6 | [B,D]2 E D3 |] %16
V:4
 x6 | x6 | x6 | x6 | x6 | x6 | x6 | x6 | x6 | x6 | x6 | B,,6 | x6 |[M:7/8] x7 |[M:3/4] x6 | B,,6 |] %16

